X:1
T:3 Lieder, Op.36
T:Rausche, rausche, froher Bach!
T:3 Lieder, Op.36
T:Josephine Lang
T:2. Rausche, rausche, froher Bach!
T:Friedrich Oser
T:Creative Commons copyright waiver (CC0 1.0 Universal)
T:Creative Commons copyright waiver (CC0 1.0 Universal)
C:Josephine Lang
Z:Friedrich Oser
Z:Creative Commons copyright waiver (CC0 1.0 Universal)
%%score ( 1 2 ) { 3 | 4 }
L:1/8
Q:1/4=116
M:2/4
K:A
V:1 treble nm="Stimme\nVoice"
V:2 treble 
V:3 treble nm="Piano"
V:4 bass 
V:1
"^Allegretto grazioso" z4 | z4 | z4 | z4 |:!f! (A/E/) (C/D/) E A | (G d/) G/ A2 | %6
w: ||||Rau- * sche, * rau- sche,|fro- * her Bach,|
w: ||||Horch, * o _ horch, mit|lau- * tem Ton|
w: ||||Ach, * wie * freu- en|Busch * und Baum|
w: ||||Rau- * sche, * rau- sche,|fro- * her Bach,|
 (A/E/) C3/4 D/4 E c3/4 A/4 | e3/2 G/ A2 | B z/ B/ (e B/) B/ | (A/B/4A/4G/) F/ c B | %10
w: küs- * se die Blu- men am|U- fer wach!|o wie wer- * den|sie _ _ _ dir's dan- ken,|
w: grüsst * dich _ freu- dig die|Am- sel schon!|schau, wie ist's _ an|dei- * * * nen Bor- den|
w: sich * auf den won- ni- gen|Som- mer- traum!|o wie wer- * den|sie _ _ _ sich nei- gen|
w: bald * ist der schlum- mern- de|Früh- ling wach!|rasch auf dei- * nen|hol- * * * den We- gen|
 B3/2 B/ (g e/) G/ | (B/^A/=A/) F/ (E/G/) (B/c/) | (=d G/) G/ (B/A/) (C/F/) | (E{/G} F/) E/ (cA) | %14
w: hold zu dir _ her-|nie- * * der schwan- * ken, *|und * in dei- * nen *|Wel- * len licht *|
w: ü- ber- all _ schon|grün * * ge- wor- * den, *|gelt * nun lässt * dir's *|kei- * ne Ruh', *|
w: froh zu dir _ mit|ih- * * ren Zwei- * gen, *|Er- * len, Wei- * den *|all- * zu- mal *|
w: zieh dem Lieb- * li-|chen * ent- * ge- * gen, *|bis * im Mai- * en, *|dank- * er- freut, *|
 (d G/) G/ (B/A/) C3/4 F/4 | (E(3G/F/) E/ (cA) | F ^E F E | (F A3/4) E/4 (=GF) | %18
w: la- * chend spie- * geln ihr|An- * * ge- sicht, *|und in dei- nen|Wel- * len licht *|
w: fri- * scher mun- * trer Ge-|sel- * * le du! _|gelt nun lässt dir's|kei- * ne Ruh', *|
w: in _ dem lu- * sti- gen|Wie- * * sen- tal, *|Er- len, Wei- den|all- * zu- mal *|
w: ganz * mit Blü- * ten er|dich * * be- streut, *|bis im Mai- en,|dank- * er- freut, *|
 (F/^G/) (A/^A/) (B/c/) d3/4 f/4 | (fG/) G/ !^!A2 | z4 | z4 | z4 | z4 :| z4 | z4 | z4 | z4 |] %28
w: la- * chend * spie- * geln ihr|An- * ge- sicht!|||||||||
w: fri- * scher * mun- * trer Ge-|sel- * le du!|||||||||
w: in * dem * lu- * sti- gen|Wie- * sen- tal!|||||||||
w: ganz * mit * Blü- * ten er|dich * be- streut!|||||||||
V:2
 x4 | x4 | x4 | x4 |: x4 | x4 | x C/>D/ x2 | x4 | x4 | x4 | x4 | (B/^A/) (=A/F/) x2 | x4 | x4 | %14
 x4 | x4 | x4 | x4 | x4 | x4 | x4 | x4 | x4 | x4 :| x4 | x4 | x4 | x4 |] %28
V:3
!p! (A/E/C/D/ Ec/A/) | z4 | z4 | z4 |: z4 | z4 | z4 | z4 | z4 | z4 | z4 | z4 | z4 | z4 | z4 | z4 | %16
 z4 | z4 | z4 | z4 | z4 | z4 | z4 | z4 :| z4 | z4 | z4 | z4 |] %28
V:4
 (A,,/E,/A,/E,/ A,,/E,/A,/E,/) | z4 | z4 | z4 |: z4 | z4 | z4 | z4 | z4 | z4 | z4 | z4 | z4 | z4 | %14
 z4 | z4 | z4 | z4 | z4 | z4 | z4 | z4 | z4 | z4 :| z4 | z4 | z4 | z4 |] %28

